packages/foundations/assets/icons/functional/images/communication/speech_bubble_question_mark_16.svg

<svg width="16" height="16" viewBox="0 0 16 16" fill="none" xmlns="http://www.w3.org/2000/svg">
<g clip-path="url(#clip0_185_507)">
<path fill-rule="evenodd" clip-rule="evenodd" d="M12.3293 1.60001C13.5372 1.60001 14.4 2.50573 14.4 3.59888V10.0015C14.4 11.0946 13.5058 12.0004 12.3921 12.0004H5.47453C5.23921 12.0004 5.03529 12.0628 4.8941 12.219L2.96474 14.171C2.46278 14.6707 1.59998 14.296 1.59998 13.5932V3.59888C1.59998 2.50573 2.50984 1.60001 3.62355 1.60001H12.3293ZM12.8 3.20001H3.19998V11.68L3.78127 11.1324C4.20554 10.7256 4.75546 10.4313 5.33676 10.4H12.8V3.20001ZM8.00001 8.40001C8.398 8.40001 8.69998 8.70497 8.69998 9.09304C8.69998 9.48119 8.398 9.80001 8.00001 9.80001C7.60195 9.80001 7.29998 9.48119 7.29998 9.09304C7.29998 8.70497 7.60195 8.40001 8.00001 8.40001ZM8.15544 4.00001C9.03651 4.00001 9.71934 4.47339 9.71934 5.33567C9.71934 5.99989 9.38791 6.36359 9.08963 6.62686C8.79136 6.89012 8.62074 7.0139 8.62373 7.18093V7.8123H7.38532V7.18093C7.38532 6.68185 7.63323 6.43173 7.89418 6.24167L8.22924 6.00727C8.38002 5.89128 8.4902 5.76468 8.4902 5.57149C8.4902 5.39621 8.39954 5.23842 8.05253 5.23842C7.75479 5.23842 7.41033 5.35458 7.14309 5.50267L6.71998 4.40451C6.98423 4.19084 7.597 4.00001 8.15544 4.00001Z" fill="#1A1C1F"/>
</g>
<defs>
<clipPath id="clip0_185_507">
<rect width="16" height="16" fill="white"/>
</clipPath>
</defs>
</svg>

<svg xmlns="http://www.w3.org/2000/svg" width="16" height="16" fill="none"><g clip-path="url(#a)"><path fill="#1A1C1F" fill-rule="evenodd" d="M12.33 1.6c1.207 0 2.07.906 2.07 1.999v6.403A2.007 2.007 0 0 1 12.392 12H5.475c-.236 0-.44.063-.58.219l-1.93 1.952c-.502.5-1.365.125-1.365-.578V3.6c0-1.093.91-1.999 2.024-1.999zm.47 1.6H3.2v8.48l.581-.548c.425-.406.974-.7 1.556-.732H12.8zM8 8.4c.398 0 .7.305.7.693A.7.7 0 0 1 8 9.8a.7.7 0 0 1-.7-.707c0-.388.302-.693.7-.693M8.155 4c.882 0 1.564.473 1.564 1.336 0 .664-.331 1.028-.63 1.29-.298.264-.468.388-.465.555v.631H7.385v-.631c0-.5.248-.75.51-.94l.334-.234c.151-.116.261-.242.261-.436 0-.175-.09-.333-.437-.333-.298 0-.643.117-.91.265L6.72 4.405C6.984 4.19 7.597 4 8.155 4" clip-rule="evenodd"/></g><defs><clipPath id="a"><path fill="#fff" d="M0 0h16v16H0z"/></clipPath></defs></svg>
